img/telephone.svg

<svg width="17" height="16" viewBox="0 0 17 16" fill="none" xmlns="http://www.w3.org/2000/svg">
<path d="M16.5 11.9289V15.0721C16.5 15.5388 16.1392 15.926 15.6738 15.9588C15.285 15.9863 14.9678 16 14.7222 16C6.86747 16 0.5 9.63253 0.5 1.77778C0.5 1.53219 0.513733 1.215 0.5412 0.826222C0.574107 0.360782 0.96128 0 1.42788 0H4.5712C4.79936 0 4.99045 0.172818 5.01336 0.399822C5.03393 0.603618 5.05305 0.767235 5.07073 0.890684C5.25053 2.14642 5.6178 3.34165 6.14329 4.44714C6.22764 4.62458 6.17263 4.83697 6.01276 4.95116L4.09427 6.3216C5.26224 9.04987 7.45013 11.2378 10.1784 12.4058L11.5463 10.4906C11.662 10.3288 11.8769 10.2732 12.0564 10.3584C13.1619 10.8835 14.357 11.2503 15.6125 11.4297C15.7352 11.4473 15.8978 11.4662 16.1002 11.4867C16.3272 11.5096 16.5 11.7007 16.5 11.9289Z" fill="#21DAFF"/>
</svg>

<svg width="17" height="16" fill="none" xmlns="http://www.w3.org/2000/svg"><path d="M16.5 11.929v3.143c0 .467-.36.854-.826.887-.389.027-.706.041-.952.041C6.867 16 .5 9.633.5 1.778c0-.246.014-.563.041-.952A.889.889 0 011.428 0H4.57c.228 0 .42.173.442.4a12.356 12.356 0 001.13 4.047c.085.178.03.39-.13.504l-1.919 1.37a11.598 11.598 0 006.084 6.085l1.368-1.915a.41.41 0 01.51-.133c1.106.525 2.301.892 3.557 1.072.122.017.285.036.487.057.227.023.4.214.4.442z" fill="#21DAFF"/></svg>
